X: 1
T: Da Sooth End
M: 6/8
L: 1/8
R: jig
K: Amaj
B|:cBA dcB|edc fed|ecA ABA|GBB B2 B|
cBA dcB|edc fed|efe dcB|1cAA A2 B:|2cAA A2e||
acc ecA|EAA cBA|ecA ABA|GBB B2e|
acc ecA|EAA cBA|Bcd efg|acd efg|
acc ecA|EAA cBA|ecA ABA|GBB B2B|
cBA dcB|edc fed|efe dcB|cAA A2 B||
